X:1
T: Donnybrook Fair
T: 1st setting (AKA The Boys from the Lough)
R:Jig
Q:180
K:G
M:6/8
L:1/16
|:D2|G2F2G2 A2G2A2|B2e2e2 d2B2A2|B2A2B2 G2A2B2|A2G2E2 G2E2D2|
G2F2G2 A2G2A2|B2e2e2 d2B2A2|B2A2B2 G4B2|A2G2F2 G4:|
|:d2|g2a2g2 f2g2f2|e2f2e2 d2B2A2|B2A2B2 d2B2A2|B2e2e2 e4f2|
g2f2g2 e2d2B2|gfg2e2 d2B2A2|B2A2B2 G4B2|A2G2F2 G4:|
